assets/logo.svg

<svg version="1.1" id="Layer_1" xmlns="http://www.w3.org/2000/svg" xmlns:xlink="http://www.w3.org/1999/xlink" x="0px" y="0px"
	 width="100%" viewBox="0 0 653 714" enable-background="new 0 0 653 714" xml:space="preserve">
<path fill="currentColor" opacity="1.000000" stroke="none" 
	d="
M315.000000,1.000001 
	C315.444458,1.000000 315.888885,1.000000 316.517090,1.322063 
	C317.133911,1.429416 317.566956,1.214706 318.000000,0.999998 
	C324.687653,1.000000 331.375275,1.000000 338.224670,1.333010 
	C339.213043,2.127195 339.988403,2.764171 340.874207,3.022847 
	C351.877197,6.235994 363.050476,8.943930 373.880646,12.655353 
	C400.628540,21.821634 427.265625,31.318899 453.834686,40.992229 
	C458.600983,42.727547 462.566895,41.873077 466.734985,40.010517 
	C484.948425,31.871630 503.831207,25.979139 523.904785,25.868299 
	C552.668396,25.709478 577.743958,35.268936 597.455505,56.788597 
	C619.079041,80.395638 627.079102,108.152283 621.611267,139.722443 
	C619.324219,152.927780 614.053650,165.106079 608.633789,177.250885 
	C603.665283,188.384399 604.243103,199.245712 612.786194,208.342026 
	C617.234131,213.077988 622.750854,217.096924 628.411316,220.349289 
	C641.235413,227.717712 648.480225,238.433853 650.228760,253.002426 
	C650.941101,258.937561 651.536621,264.887482 652.333679,270.810699 
	C652.440063,271.600891 653.423035,272.273132 654.000000,273.000000 
	C654.000000,284.354218 654.000000,295.708466 653.634888,307.214478 
	C652.930481,308.052124 652.341736,308.718781 652.287415,309.426514 
	C648.912354,353.363281 632.494934,392.550568 607.773926,428.359985 
	C597.250427,443.603790 585.452576,458.095673 573.093201,471.908783 
	C560.294128,486.213379 546.256165,499.428345 532.488525,512.841248 
	C522.521423,522.551514 513.313660,532.328552 511.107697,547.077209 
	C510.172028,553.333008 507.009308,559.324036 504.438965,565.253418 
	C498.174072,579.705688 487.262634,590.842468 476.608521,601.881714 
	C456.461700,622.756897 435.162323,642.504211 412.213196,660.285583 
	C387.293427,679.593933 361.963837,698.393677 333.617920,712.615173 
	C332.868439,712.991211 332.530060,714.186646 332.000000,715.000000 
	C328.638702,715.000000 325.277435,715.000000 321.818146,714.734009 
	C319.956757,713.402039 318.233643,712.261658 316.423981,711.281128 
	C287.231415,695.465027 260.335510,676.218506 234.751328,655.229187 
	C210.990097,635.735413 188.570999,614.712402 167.830307,591.948853 
	C154.690170,577.527100 145.441757,561.166748 141.258331,542.013489 
	C139.523499,534.070801 136.330780,526.994141 129.829376,521.492737 
	C124.126915,516.667358 119.045006,511.109375 113.680847,505.883392 
	C92.586746,485.332336 72.378265,463.979401 54.932846,440.177643 
	C41.440380,421.769165 29.483583,402.427490 20.446077,381.399445 
	C11.399932,360.351257 5.129864,338.542633 2.663353,315.701019 
	C2.596444,315.081360 1.575861,314.564697 0.999998,314.000000 
	C1.000000,300.645782 1.000000,287.291534 1.332290,273.390594 
	C1.680288,272.502838 1.695995,272.161835 1.711704,271.820801 
	C1.474470,271.880554 1.237236,271.940277 1.000001,272.000000 
	C1.000000,270.285645 1.000000,268.571289 1.364945,266.730682 
	C2.233726,264.423218 2.775496,262.249908 3.234420,260.059296 
	C4.725468,252.941879 5.329297,245.495529 7.860032,238.772614 
	C11.627879,228.763306 20.603226,223.291290 29.468599,218.261810 
	C46.944801,208.347321 52.503670,193.109192 44.847347,175.835449 
	C41.822258,169.010437 38.957775,162.098282 36.383339,155.092361 
	C27.336136,130.471817 28.227356,106.092300 39.333790,82.363113 
	C51.359062,56.670807 70.833427,38.729069 98.048515,30.454153 
	C124.296486,22.473291 150.447861,24.684576 175.514114,35.636303 
	C187.605164,40.919022 199.164658,44.349125 211.504501,37.060017 
	C212.764923,36.315483 214.343872,36.124634 215.752213,35.613956 
	C247.935104,23.944160 279.852753,11.482553 313.126862,3.066283 
	C313.877441,2.876440 314.381134,1.710584 315.000000,1.000001 
M170.335236,71.091827 
	C159.684402,66.246719 148.733887,62.355183 136.970215,61.448975 
	C114.286087,59.701515 94.442436,65.481720 79.503151,83.734421 
	C63.140141,103.726631 60.756157,130.538086 72.949303,153.350311 
	C87.620804,180.799301 86.426903,207.073685 67.005264,232.111526 
	C60.924950,239.950104 52.990047,245.251389 44.869797,250.412247 
	C41.752892,252.393234 39.438988,254.377441 39.000519,258.356628 
	C38.112877,266.412140 36.198631,274.401764 35.881550,282.464691 
	C34.581707,315.518188 42.055935,346.794647 56.268623,376.516510 
	C71.058228,407.444763 92.142990,433.876587 115.763603,458.371002 
	C130.192322,473.333527 145.204010,487.732178 159.795898,502.539734 
	C167.794479,510.656464 173.982986,520.338745 174.924652,531.676147 
	C175.936554,543.859070 180.524292,554.323120 188.399750,562.608765 
	C206.676331,581.837158 225.358398,600.778442 245.057129,618.525208 
	C260.439178,632.382996 277.397400,644.538330 294.047974,656.922180 
	C303.094635,663.650513 312.991211,669.230713 322.439758,675.427490 
	C325.369080,677.348694 327.785461,677.652954 330.924713,675.437683 
	C350.590942,661.560730 370.946503,648.598877 390.028503,633.970459 
	C416.682556,613.537109 440.779388,590.143066 463.390137,565.303040 
	C470.467407,557.527954 476.842590,548.736877 478.043274,538.060852 
	C480.021057,520.475647 488.565277,507.089203 501.006073,495.138519 
	C517.410339,479.380371 533.550964,463.303040 549.046692,446.657074 
	C563.066833,431.596252 575.381409,415.135529 586.096985,397.431061 
	C604.022888,367.813568 616.559692,336.476379 618.027893,301.545074 
	C618.674988,286.150055 619.624573,270.546021 614.189392,255.615891 
	C613.531616,253.809174 611.996887,251.936676 610.355652,250.935684 
	C599.921692,244.572006 590.135925,237.591980 583.246643,227.155182 
	C568.505615,204.823395 567.089600,181.854996 578.805725,157.723389 
	C582.695923,149.710526 586.529724,141.225510 587.982727,132.553131 
	C593.492737,99.666695 571.705688,68.859016 538.895996,62.506561 
	C519.599243,58.770412 500.953705,62.143456 483.921295,71.557991 
	C469.159973,79.717216 454.834656,80.637390 439.567627,73.780411 
	C431.999725,70.381401 424.126801,67.636925 416.312958,64.814842 
	C394.893066,57.078735 373.476105,49.330067 351.968781,41.842506 
	C339.935181,37.653126 327.439880,34.539169 314.878571,38.577740 
	C290.180298,46.518456 265.663391,55.033527 241.157822,63.559166 
	C228.591522,67.931068 216.391068,73.437653 203.671066,77.249481 
	C197.344681,79.145309 190.293243,81.539238 183.430145,77.774376 
	C179.355972,75.539436 175.153641,73.538177 170.335236,71.091827 
z"/>
<path fill="currentColor" opacity="1.000000" stroke="none" 
	d="
M123.909653,84.869598 
	C139.907242,78.308960 155.840530,75.650719 172.385727,81.094826 
	C185.761810,85.496140 195.623505,94.337967 203.516418,105.678635 
	C204.460312,107.034843 205.585953,108.295120 206.334030,109.750610 
	C207.808197,112.618729 209.624603,112.690758 212.428802,111.462799 
	C234.983185,101.586281 258.536774,96.867035 283.233307,97.145920 
	C313.554779,97.488319 343.885406,97.455154 374.207764,97.153587 
	C398.999908,96.907028 422.166412,103.280823 444.268005,112.872307 
	C449.159058,106.846611 453.672211,100.734459 458.751312,95.135666 
	C472.376099,80.116844 489.916199,76.235374 509.150024,78.936371 
	C522.996338,80.880798 535.883057,85.410042 545.959595,96.026695 
	C562.954041,113.931923 567.853577,134.925491 562.485901,158.622543 
	C559.009766,173.968903 549.515991,185.413193 537.565796,194.881393 
	C534.132263,197.601791 534.000061,199.549088 535.815186,203.030579 
	C545.064270,220.770416 550.904236,239.643295 552.918335,259.523895 
	C556.218628,292.098938 550.497925,322.952942 535.268738,352.187592 
	C526.837036,368.373474 516.508606,383.018066 504.373932,396.499969 
	C500.935913,400.319641 497.417175,404.100403 493.630402,407.565613 
	C484.774231,415.669739 480.921082,426.312836 477.433258,437.360687 
	C470.529388,459.228912 463.871368,481.259613 451.464111,500.864563 
	C441.571564,516.495850 427.420837,526.741455 410.751678,532.297180 
	C407.072479,544.609192 404.447632,556.865417 399.779724,568.286621 
	C390.220032,591.676697 372.842285,605.660034 347.055298,607.856384 
	C329.616333,609.341675 312.155975,609.903992 294.983215,605.716248 
	C273.644318,600.512634 260.151855,586.343140 252.759491,566.350220 
	C249.150436,556.589417 247.287888,546.189575 244.426636,536.138184 
	C244.002975,534.649902 242.693115,532.797913 241.345291,532.280029 
	C216.787964,522.844543 200.820450,505.022614 191.608505,480.924011 
	C185.381470,464.633942 179.351852,448.222626 174.313110,431.539581 
	C170.698868,419.573059 163.653397,410.641785 154.952682,402.181305 
	C132.383408,380.234985 115.917358,354.262634 106.895943,324.031921 
	C98.617577,296.291199 97.330597,268.023285 104.852142,239.919083 
	C108.743332,225.379669 114.329918,211.294022 119.298737,196.564011 
	C108.825378,189.963562 99.510689,180.510452 94.278946,167.699814 
	C89.138039,155.111603 87.561172,141.994308 90.433403,128.572708 
	C94.644325,108.895561 105.154869,93.941933 123.909653,84.869598 
M268.604340,414.802460 
	C262.272980,412.302063 255.754807,410.184723 249.654968,407.209625 
	C240.968384,402.972900 231.794250,398.505981 229.687912,387.847076 
	C228.157425,380.102264 227.244614,371.991577 227.727112,364.146790 
	C228.568649,350.465027 230.697556,336.862488 232.315826,322.978394 
	C231.517639,322.887604 230.714508,322.819092 229.918472,322.702271 
	C219.559174,321.181976 209.345215,319.680542 201.088120,312.025116 
	C184.359207,296.515198 176.925720,276.971039 175.834427,254.768875 
	C175.269180,243.269028 181.706192,237.239700 193.207291,237.226120 
	C213.036789,237.202698 232.889404,237.812454 252.688950,237.042053 
	C270.134399,236.363266 280.836792,251.395584 278.059662,267.546021 
	C274.768097,286.687897 270.502014,305.660095 266.934540,324.757416 
	C264.373413,338.467316 262.140045,352.242493 260.004700,366.026367 
	C258.813965,373.712708 260.172394,375.769775 267.658569,377.193298 
	C274.147797,378.427246 280.771149,379.566864 287.346222,379.631653 
	C314.505005,379.899261 341.676544,380.117554 368.823700,379.494904 
	C376.225708,379.325104 383.608063,376.324158 390.876068,374.200348 
	C392.105286,373.841125 393.662994,371.181274 393.451294,369.839630 
	C391.048737,354.615143 388.491486,339.410400 385.657318,324.259918 
	C382.116669,305.332550 378.235718,286.469116 374.583740,267.562256 
	C371.977997,254.071869 380.854645,237.462585 397.696991,237.305908 
	C418.857819,237.109039 440.024536,237.026123 461.183105,237.310852 
	C472.120483,237.458038 478.448181,245.756989 477.576904,256.684509 
	C476.623230,268.645660 473.660126,280.082428 468.271759,290.626587 
	C460.174042,306.472443 449.563568,319.546082 429.768860,321.245300 
	C420.733063,322.021027 420.898193,322.570953 421.796112,331.701965 
	C423.192444,345.901978 425.008087,360.097534 425.529510,374.335876 
	C426.004120,387.296631 421.027100,398.244843 408.643585,404.134552 
	C399.235626,408.609131 389.497314,412.402557 379.837891,416.331543 
	C368.270630,421.036591 357.586090,426.897827 350.746552,437.896576 
	C342.779755,450.708099 339.788513,464.283142 345.662292,478.751160 
	C351.643311,493.483337 373.278961,505.003845 391.543121,502.053955 
	C410.274261,499.028625 422.277008,487.105072 428.803925,470.243561 
	C437.678894,447.316162 445.243225,423.881805 453.415100,400.680908 
	C453.898163,399.309448 454.545532,397.850647 455.527130,396.825897 
	C459.200195,392.991364 463.016083,389.291595 466.828766,385.593231 
	C485.719299,367.269104 501.610413,347.087585 511.071228,321.972839 
	C522.539734,291.528595 522.247620,261.491730 510.822205,231.429581 
	C502.183380,208.699417 488.586029,189.266769 470.618561,172.754852 
	C443.391449,147.733337 411.593506,133.350784 374.582489,132.455353 
	C341.776489,131.661652 308.930725,132.172821 276.107605,132.549805 
	C255.657532,132.784668 236.368134,138.440460 218.279709,147.777130 
	C190.940521,161.888748 169.268692,182.111115 153.582779,208.739746 
	C142.574036,227.428375 135.894379,247.586563 134.430084,269.048248 
	C132.392365,298.914581 141.099243,326.225067 157.116730,351.324249 
	C166.491837,366.014984 178.464142,378.437225 191.146637,390.224091 
	C196.008255,394.742310 199.611664,399.903625 201.495743,406.370148 
	C203.863297,414.496033 206.305939,422.627258 209.285904,430.541626 
	C214.964355,445.622864 220.300140,460.902405 227.133286,475.463654 
	C237.858582,498.318970 261.937805,508.700287 284.911652,498.678802 
	C302.637573,490.946564 310.970245,477.842499 309.450867,458.681305 
	C308.697449,449.179810 304.515442,441.097443 298.888275,433.767761 
	C291.378418,423.985809 280.373810,419.429199 268.604340,414.802460 
M284.260010,553.242432 
	C287.959869,566.125122 297.547882,572.288574 309.905640,573.446411 
	C320.932556,574.479492 332.165771,574.030579 343.253967,573.352661 
	C348.003113,573.062317 353.217041,571.450562 357.176819,568.850708 
	C368.928558,561.134827 370.864624,548.134155 374.282013,535.206421 
	C355.203125,532.532776 338.756012,525.953308 326.700684,510.745819 
	C313.925598,525.730469 297.384003,531.990906 278.813324,535.192200 
	C280.640625,541.466187 282.258667,547.021790 284.260010,553.242432 
M522.118225,121.364357 
	C506.807922,107.343567 481.150696,112.121857 474.724243,129.651886 
	C488.872711,142.872833 502.845734,155.929871 516.878540,169.042770 
	C533.405945,155.856140 533.602295,132.038025 522.118225,121.364357 
M126.359329,154.026367 
	C129.530396,159.300156 132.701477,164.573944 136.232071,170.445633 
	C141.934784,164.455811 146.333359,159.303726 151.286499,154.755615 
	C159.089050,147.591095 167.258392,140.825638 175.285172,133.905975 
	C178.483383,131.148895 179.638168,128.546432 176.232529,124.780449 
	C168.447433,116.171631 159.170929,111.853676 147.472656,113.439545 
	C129.277100,115.906212 119.423744,134.249252 126.359329,154.026367 
M435.252289,271.760010 
	C428.629333,271.930695 421.989349,271.871124 415.389801,272.358582 
	C411.444580,272.649994 409.355286,275.073151 410.618591,279.289062 
	C411.890167,283.532715 413.287262,287.738800 414.739685,292.308472 
	C419.303284,290.555634 423.606842,289.278351 427.562531,287.304108 
	C435.469788,283.357697 437.784210,278.880066 435.252289,271.760010 
M233.281143,290.172485 
	C234.954834,290.759644 236.628540,291.346802 238.755463,292.092957 
	C239.937790,288.110138 241.443481,284.409027 242.079239,280.564056 
	C242.956924,275.255920 241.158966,272.408966 236.438477,272.069153 
	C230.066574,271.610413 223.636826,271.955200 217.195450,271.955200 
	C216.086746,280.278381 217.516403,283.202820 224.775345,286.687439 
	C227.304855,287.901733 229.956070,288.862518 233.281143,290.172485 
z"/>
</svg>

<svg xmlns="http://www.w3.org/2000/svg" viewBox="0 0 653 714"><path fill="currentColor" d="M315 1c.444 0 .889 0 1.517.322.617.107 1.05-.107 1.483-.322 6.688 0 13.375 0 20.225.333.988.794 1.763 1.431 2.65 1.69 11.002 3.213 22.175 5.92 33.006 9.632 26.748 9.167 53.385 18.664 79.954 28.337 4.766 1.736 8.732.881 12.9-.981 18.213-8.14 37.096-14.032 57.17-14.143 28.763-.159 53.839 9.4 73.55 30.92 21.624 23.608 29.624 51.364 24.156 82.934-2.287 13.206-7.557 25.384-12.977 37.529-4.969 11.133-4.39 21.995 4.152 31.091 4.448 4.736 9.965 8.755 15.625 12.007 12.824 7.369 20.07 18.085 21.818 32.653.712 5.936 1.308 11.885 2.105 17.809.106.79 1.089 1.462 1.666 2.189 0 11.354 0 22.708-.365 34.214-.705.838-1.293 1.505-1.348 2.213-3.375 43.936-19.792 83.124-44.513 118.933-10.524 15.244-22.321 29.736-34.68 43.549-12.8 14.304-26.838 27.52-40.605 40.932-9.968 9.71-19.175 19.488-21.381 34.236-.936 6.256-4.099 12.247-6.669 18.176-6.265 14.453-17.176 25.59-27.83 36.629-20.147 20.875-41.447 40.622-64.396 58.404-24.92 19.308-50.25 38.108-78.595 52.33-.75.375-1.088 1.57-1.618 2.384-3.361 0-6.723 0-10.182-.266-1.861-1.332-3.584-2.472-5.394-3.453-29.193-15.816-56.088-35.062-81.673-56.052-23.76-19.494-46.18-40.517-66.92-63.28-13.14-14.422-22.39-30.782-26.573-49.936-1.735-7.942-4.927-15.019-11.429-20.52-5.702-4.826-10.784-10.384-16.148-15.61-21.094-20.55-41.303-41.904-58.748-65.705-13.493-18.409-25.45-37.75-34.487-58.779C11.4 360.351 5.13 338.543 2.663 315.701c-.067-.62-1.087-1.136-1.663-1.701 0-13.354 0-26.708.332-40.61.348-.887.364-1.228.38-1.57L1 272c0-1.714 0-3.429.365-5.27.869-2.307 1.41-4.48 1.87-6.67 1.49-7.118 2.094-14.564 4.625-21.287 3.768-10.01 12.743-15.482 21.609-20.511 17.476-9.915 23.035-25.153 15.378-42.427-3.025-6.825-5.89-13.737-8.464-20.743-9.047-24.62-8.156-49 2.95-72.729C51.36 56.671 70.834 38.73 98.05 30.454c26.247-7.98 52.399-5.77 77.465 5.182 12.091 5.283 23.65 8.713 35.99 1.424 1.26-.745 2.84-.935 4.248-1.446 32.183-11.67 64.1-24.131 97.375-32.548.75-.19 1.254-1.355 1.873-2.066M170.335 71.092c-10.65-4.845-21.601-8.737-33.365-9.643-22.684-1.747-42.528 4.033-57.467 22.285-16.363 19.993-18.747 46.804-6.554 69.616 14.672 27.45 13.478 53.724-5.944 78.762-6.08 7.838-14.015 13.14-22.135 18.3-3.117 1.981-5.431 3.965-5.87 7.945-.887 8.055-2.801 16.045-3.118 24.108-1.3 33.053 6.174 64.33 20.387 94.052 14.79 30.928 35.874 57.36 59.495 81.854 14.428 14.963 29.44 29.361 44.032 44.169 7.998 8.116 14.187 17.799 15.129 29.136 1.012 12.183 5.6 22.647 13.475 30.933 18.276 19.228 36.958 38.17 56.657 55.916 15.382 13.858 32.34 26.013 48.991 38.397 9.047 6.729 18.943 12.309 28.392 18.505 2.93 1.922 5.345 2.226 8.485.01 19.666-13.876 40.022-26.838 59.104-41.467 26.654-20.433 50.75-43.827 73.361-68.667 7.077-7.775 13.453-16.566 14.653-27.242 1.978-17.585 10.522-30.972 22.963-42.922 16.404-15.759 32.545-31.836 48.04-48.482 14.02-15.06 26.335-31.521 37.051-49.226 17.926-29.617 30.463-60.955 31.93-95.886.648-15.395 1.598-30.999-3.838-45.93-.657-1.806-2.192-3.678-3.833-4.68-10.434-6.363-20.22-13.343-27.11-23.78-14.74-22.332-16.156-45.3-4.44-69.432 3.89-8.012 7.724-16.497 9.177-25.17 5.51-32.886-16.277-63.694-49.087-70.046-19.297-3.737-37.942-.364-54.975 9.051-14.761 8.16-29.086 9.08-44.353 2.222-7.568-3.399-15.441-6.143-23.255-8.965-21.42-7.736-42.837-15.485-64.344-22.972-12.034-4.19-24.53-7.304-37.09-3.265-24.699 7.94-49.216 16.456-73.721 24.981-12.566 4.372-24.767 9.879-37.487 13.69-6.326 1.896-13.378 4.29-20.24.525-4.075-2.235-8.277-4.236-13.096-6.682z"/><path fill="currentColor" d="M123.91 84.87c15.997-6.561 31.93-9.22 48.476-3.775 13.376 4.401 23.238 13.243 31.13 24.584.944 1.356 2.07 2.616 2.818 4.072 1.474 2.868 3.29 2.94 6.095 1.712 22.554-9.877 46.108-14.596 70.804-14.317 30.322.342 60.652.31 90.975.008 24.792-.247 47.958 6.127 70.06 15.718 4.891-6.025 9.404-12.138 14.483-17.736 13.625-15.02 31.165-18.9 50.399-16.2 13.846 1.945 26.733 6.474 36.81 17.09 16.994 17.906 21.894 38.9 16.526 62.597-3.476 15.346-12.97 26.79-24.92 36.258-3.434 2.72-3.566 4.668-1.75 8.15 9.248 17.74 15.088 36.612 17.102 56.493 3.3 32.575-2.42 63.429-17.65 92.664-8.431 16.185-18.76 30.83-30.894 44.312-3.438 3.82-6.957 7.6-10.744 11.066-8.856 8.104-12.709 18.747-16.197 29.795-6.904 21.868-13.562 43.899-25.969 63.504-9.892 15.63-24.043 25.876-40.712 31.432-3.68 12.312-6.304 24.568-10.972 35.99-9.56 23.39-26.938 37.373-52.725 39.57-17.439 1.485-34.899 2.047-52.072-2.14-21.339-5.204-34.831-19.374-42.224-39.367-3.609-9.76-5.471-20.16-8.332-30.212-.424-1.488-1.734-3.34-3.082-3.858-24.557-9.435-40.525-27.257-49.736-51.356-6.228-16.29-12.257-32.701-17.296-49.384-3.614-11.967-10.66-20.898-19.36-29.359-22.57-21.946-39.036-47.918-48.057-78.15-8.278-27.74-9.565-56.008-2.044-84.112 3.891-14.54 9.478-28.625 14.447-43.355-10.474-6.6-19.788-16.054-25.02-28.864-5.141-12.588-6.718-25.706-3.846-39.127 4.211-19.677 14.722-34.631 33.477-43.703m144.694 329.932c-6.331-2.5-12.85-4.617-18.949-7.592-8.687-4.237-17.86-8.704-19.967-19.363-1.53-7.745-2.443-15.855-1.96-23.7.84-13.682 2.97-27.285 4.588-41.169-.798-.09-1.601-.159-2.398-.276-10.359-1.52-20.573-3.021-28.83-10.677-16.729-15.51-24.162-35.054-25.254-57.256-.565-11.5 5.872-17.53 17.373-17.543 19.83-.023 39.682.586 59.482-.184 17.445-.679 28.148 14.354 25.37 30.504-3.29 19.142-7.557 38.114-11.124 57.211-2.562 13.71-4.795 27.485-6.93 41.27-1.191 7.686.167 9.743 7.654 11.166 6.489 1.234 13.112 2.374 19.687 2.439 27.159.267 54.33.486 81.478-.137 7.402-.17 14.784-3.17 22.052-5.295 1.23-.359 2.787-3.019 2.575-4.36-2.402-15.225-4.96-30.43-7.794-45.58-3.54-18.927-7.421-37.79-11.073-56.698-2.606-13.49 6.27-30.1 23.113-30.256 21.16-.197 42.328-.28 63.486.005 10.937.147 17.265 8.446 16.394 19.374-.954 11.96-3.917 23.397-9.305 33.942-8.098 15.845-18.708 28.92-38.503 30.618-9.036.776-8.87 1.326-7.973 10.457 1.396 14.2 3.212 28.396 3.734 42.634.474 12.96-4.503 23.909-16.886 29.799-9.408 4.474-19.147 8.268-28.806 12.197-11.567 4.705-22.252 10.566-29.091 21.565-7.967 12.811-10.958 26.386-5.085 40.854 5.981 14.732 27.617 26.253 45.881 23.303 18.731-3.025 30.734-14.949 37.26-31.81 8.876-22.928 16.44-46.362 24.612-69.563.483-1.372 1.13-2.83 2.112-3.855 3.673-3.835 7.49-7.534 11.302-11.233 18.89-18.324 34.781-38.505 44.242-63.62 11.469-30.444 11.177-60.481-.249-90.543-8.639-22.73-22.236-42.163-40.203-58.675-27.228-25.022-59.025-39.404-96.037-40.3-32.806-.793-65.651-.282-98.474.095-20.45.235-39.74 5.89-57.828 15.227-27.34 14.112-49.011 34.334-64.697 60.963-11.009 18.688-17.689 38.847-19.153 60.308-2.038 29.867 6.67 57.177 22.687 82.276 9.375 14.691 21.347 27.113 34.03 38.9 4.861 4.518 8.465 9.68 10.349 16.146 2.367 8.126 4.81 16.257 7.79 24.172 5.678 15.08 11.014 30.36 17.847 44.922 10.726 22.855 34.805 33.236 57.779 23.215 17.726-7.732 26.058-20.837 24.539-39.998-.754-9.501-4.936-17.584-10.563-24.913-7.51-9.782-18.514-14.339-30.284-18.966m15.656 138.44c3.7 12.883 13.288 19.047 25.646 20.204 11.027 1.033 22.26.585 33.348-.093 4.75-.29 9.963-1.902 13.923-4.502 11.752-7.716 13.688-20.717 17.105-33.645-19.079-2.673-35.526-9.253-47.581-24.46-12.775 14.984-29.317 21.245-47.888 24.446 1.828 6.274 3.446 11.83 5.447 18.05m237.858-431.878c-15.31-14.02-40.967-9.242-47.394 8.288l42.155 39.39c16.527-13.186 16.723-37.004 5.24-47.678m-395.76 32.662l9.873 16.42c5.703-5.99 10.101-11.142 15.054-15.69 7.803-7.165 15.972-13.93 24-20.85 3.197-2.757 4.352-5.36.947-9.126-7.786-8.608-17.062-12.926-28.76-11.34-18.196 2.466-28.05 20.81-21.114 40.586M435.252 271.76c-6.623.17-13.263.111-19.862.599-3.945.291-6.035 2.714-4.771 6.93 1.271 4.244 2.668 8.45 4.12 13.02 4.564-1.753 8.868-3.03 12.824-5.005 7.907-3.946 10.221-8.424 7.69-15.544M233.28 290.172l5.474 1.921c1.183-3.983 2.688-7.684 3.324-11.529.878-5.308-.92-8.155-5.64-8.495-6.372-.459-12.802-.114-19.244-.114-1.108 8.323.321 11.248 7.58 14.732 2.53 1.215 5.181 2.176 8.506 3.485z"/></svg>
